X: 54
T: DEBBIE'S REEL
C: Tom Anderson
R: reel
B: Haand me doon da fiddle, 1979
Z: 2012 John Chambers <jc:trillian.mit.edu>
M: C
L: 1/8
K: D
A, |:\
DCD(uE FE)F(uA | dc)de fdAF | GFGA BABd | gfed cAGE |
DCDE FEFA | dcde fdAF | GABg fdec | [1 d2dd- d3A, :|[2 d2dd d2fg |
va(ufef) dcde | fdad fd-df | gfed caAa | Bged cAfg |
afef dcde | fdad fddB | GABg fdec | d2dd d2fg |
afef dcde | fdad fd-df | gfed caAa | Bged cAGE |
DCDE FEFA | dcde fdAF | GABg fdec | d2dd- d2z |]
%%begintext align
I made up dis t\"un to Debbie Scott, wan o' my pupils.
%%endtext

%%sep 2 1 500
%%sep 1 1 500

